libs/ui/packages/crypto-icons/src/svg/CLFIL.svg

<svg width="100" height="100" fill="none" viewBox="0 0 512 512"><path fill="#fff" d="M379.398 288.735h-58.23c-6.932 37.97-35.354 49.015-61.003 49.015-36.047 0-63.429-28.304-63.429-81.116 0-51.086 27.382-80.426 62.736-80.426 28.075 0 53.377 14.843 59.963 49.015h58.23c-8.665-56.954-53.031-97.684-116.114-97.684-78.333 0-127.551 50.05-127.551 129.095 0 80.081 47.485 129.786 125.818 129.786 63.43 0 110.568-39.695 119.58-97.685"/></svg>

<svg width="100" height="100" viewBox="0 0 512 512" fill="none">
<path d="M379.398 288.735H321.168C314.236 326.705 285.814 337.75 260.165 337.75C224.118 337.75 196.736 309.446 196.736 256.634C196.736 205.548 224.118 176.208 259.472 176.208C287.547 176.208 312.849 191.051 319.435 225.223H377.665C369 168.269 324.634 127.539 261.551 127.539C183.218 127.539 134 177.589 134 256.634C134 336.715 181.485 386.42 259.818 386.42C323.248 386.42 370.386 346.725 379.398 288.735Z" fill="white"/>
</svg>
